packages/core/src/svgs/carbon.svg

<svg width="24" height="24" viewBox="0 0 24 24" fill="none" xmlns="http://www.w3.org/2000/svg">
<g clip-path="url(#clip0_31_7693)">
<path d="M0 0H24V24H0V0Z" fill="url(#paint0_linear_31_7693)"/>
<path fill-rule="evenodd" clip-rule="evenodd" d="M12.0001 18.8572C13.8187 18.8572 15.5628 18.1348 16.8488 16.8488C18.1348 15.5628 18.8572 13.8187 18.8572 12.0001C18.8572 10.1814 18.1348 8.4373 16.8488 7.15134C15.5628 5.86537 13.8187 5.14293 12.0001 5.14293C10.1814 5.14293 8.4373 5.86537 7.15134 7.15134C5.86537 8.4373 5.14293 10.1814 5.14293 12.0001C5.14293 13.8187 5.86537 15.5628 7.15134 16.8488C8.4373 18.1348 10.1814 18.8572 12.0001 18.8572ZM12.0001 19.2858C13.9324 19.2858 15.7855 18.5182 17.1518 17.1518C18.5182 15.7855 19.2858 13.9324 19.2858 12.0001C19.2858 10.0678 18.5182 8.21463 17.1518 6.84829C15.7855 5.48196 13.9324 4.71436 12.0001 4.71436C10.0678 4.71436 8.21463 5.48196 6.84829 6.84829C5.48196 8.21463 4.71436 10.0678 4.71436 12.0001C4.71436 13.9324 5.48196 15.7855 6.84829 17.1518C8.21463 18.5182 10.0678 19.2858 12.0001 19.2858Z" fill="#A4A4A4"/>
<path d="M15.6086 12.2141C15.5144 13.3841 14.8072 15.4284 12.5058 15.4284C10.8772 15.4284 9.2915 13.7699 8.1515 12.7413C8.00578 12.5999 7.71436 12.2484 7.71436 11.9999C7.71436 11.7513 8.00578 11.3999 8.1515 11.2584C9.2915 10.2299 10.8815 8.57129 12.5058 8.57129C14.7772 8.57129 15.4972 10.6113 15.6044 11.7856H18.8572V12.2141H15.6086ZM14.8844 11.7856C14.9572 11.7856 15.0129 11.7213 15.0001 11.6484C14.8544 10.667 14.2158 8.99986 12.4286 8.99986C11.6958 8.99986 10.8472 9.65558 10.4315 9.94272C10.4215 9.94981 10.4132 9.95895 10.407 9.96953C10.4009 9.98012 10.397 9.9919 10.3958 10.0041C10.3946 10.0163 10.396 10.0286 10.4 10.0402C10.4039 10.0517 10.4103 10.0624 10.4186 10.0713L11.9486 11.7856H14.8844ZM10.8215 11.7856C10.9286 11.7856 10.9801 11.6527 10.9072 11.5713L9.87007 10.3713C9.40293 10.7656 8.70007 11.2627 8.35721 11.7856H10.8215ZM15.0044 12.3513C15.0172 12.2784 14.9272 12.2141 14.8586 12.2141C14.7215 12.2141 14.6272 12.2699 14.5286 12.3684L12.2015 14.9827C12.2786 14.9956 12.3558 14.9999 12.4286 14.9999C14.2415 14.9999 14.8715 13.3284 15.0044 12.3513ZM13.3715 12.7156C13.5215 12.557 13.4144 12.2141 13.2001 12.2141H8.35721C9.31206 13.2113 10.3926 14.08 11.5715 14.7984L13.3715 12.7156Z" fill="#FCFCFC"/>
</g>
<defs>
<linearGradient id="paint0_linear_31_7693" x1="3.21429" y1="4.71429" x2="19.5" y2="20.5714" gradientUnits="userSpaceOnUse">
<stop offset="0.5" stop-color="#3BB66D"/>
<stop offset="0.51" stop-color="#3AAA67"/>
</linearGradient>
<clipPath id="clip0_31_7693">
<rect width="24" height="24" fill="white"/>
</clipPath>
</defs>
</svg>

<svg xmlns="http://www.w3.org/2000/svg" width="24" height="24" fill="none" viewBox="0 0 24 24"><g clip-path="url(#a)"><path fill="url(#b)" d="M0 0h24v24H0z"/><path fill="#A4A4A4" fill-rule="evenodd" d="M12 18.857a6.857 6.857 0 1 0 0-13.714 6.857 6.857 0 0 0 0 13.714m0 .429a7.285 7.285 0 1 0 0-14.57 7.285 7.285 0 0 0 0 14.57" clip-rule="evenodd"/><path fill="#FCFCFC" d="M15.609 12.214c-.095 1.17-.802 3.214-3.103 3.214-1.629 0-3.215-1.658-4.354-2.687-.146-.141-.438-.493-.438-.741 0-.249.292-.6.438-.742 1.14-1.028 2.73-2.687 4.354-2.687 2.271 0 2.991 2.04 3.098 3.215h3.253v.428zm-.725-.428a.117.117 0 0 0 .116-.138C14.854 10.667 14.216 9 12.43 9c-.733 0-1.582.656-1.998.943a.09.09 0 0 0-.031.097q.006.018.019.031l1.53 1.715zm-4.062 0c.107 0 .158-.133.085-.215l-1.037-1.2c-.467.395-1.17.892-1.513 1.415zm4.182.565c.013-.073-.077-.137-.145-.137-.137 0-.232.056-.33.154L12.2 14.983q.118.018.228.017c1.813 0 2.442-1.672 2.575-2.649m-1.633.365c.15-.159.043-.502-.17-.502H8.356a16 16 0 0 0 3.215 2.584z"/></g><defs><linearGradient id="b" x1="3.214" x2="19.5" y1="4.714" y2="20.571" gradientUnits="userSpaceOnUse"><stop offset=".5" stop-color="#3BB66D"/><stop offset=".51" stop-color="#3AAA67"/></linearGradient><clipPath id="a"><path fill="#fff" d="M0 0h24v24H0z"/></clipPath></defs></svg>
